polaris-icons/icons/newicons/TransferInMajor.svg

<svg width="20" height="20" viewBox="0 0 20 20" fill="none" xmlns="http://www.w3.org/2000/svg">
<path d="M17 3.75C17 3.33579 16.6642 3 16.25 3C15.8358 3 15.5 3.33579 15.5 3.75V16.25C15.5 16.6642 15.8358 17 16.25 17C16.6642 17 17 16.6642 17 16.25V3.75Z" fill="black"/>
<path d="M3 10.75C2.58579 10.75 2.25 10.4142 2.25 10C2.25 9.58579 2.58579 9.25 3 9.25L11.287 9.25L9.4489 7.25871C9.16794 6.95435 9.18692 6.47985 9.49129 6.1989C9.79566 5.91795 10.2702 5.93693 10.5511 6.24129L13.5511 9.49129C13.8163 9.77859 13.8163 10.2214 13.5511 10.5087L10.5511 13.7587C10.2701 14.0631 9.79566 14.0821 9.49129 13.8011C9.18692 13.5202 9.16794 13.0457 9.4489 12.7413L11.287 10.75L3 10.75Z" fill="black"/>
</svg>

<svg viewBox="0 0 20 20" fill="none" xmlns="http://www.w3.org/2000/svg"><path d="M17 3.75a.75.75 0 0 0-1.5 0v12.5a.75.75 0 0 0 1.5 0v-12.5Z" fill="#5C5F62"/><path d="M3 10.75a.75.75 0 0 1 0-1.5h8.287l-1.838-1.991a.75.75 0 1 1 1.102-1.018l3 3.25a.75.75 0 0 1 0 1.018l-3 3.25a.75.75 0 1 1-1.102-1.018l1.838-1.991h-8.287Z" fill="#5C5F62"/></svg>
